Numix-GalliumOS/22/categories/applications-system.svg

<?xml version="1.0" encoding="UTF-8" standalone="no"?>
<svg
   xmlns:dc="http://purl.org/dc/elements/1.1/"
   xmlns:cc="http://creativecommons.org/ns#"
   xmlns:rdf="http://www.w3.org/1999/02/22-rdf-syntax-ns#"
   xmlns:svg="http://www.w3.org/2000/svg"
   xmlns="http://www.w3.org/2000/svg"
   xmlns:sodipodi="http://sodipodi.sourceforge.net/DTD/sodipodi-0.dtd"
   xmlns:inkscape="http://www.inkscape.org/namespaces/inkscape"
   width="22"
   height="22"
   viewBox="0 0 22 22"
   id="svg2"
   version="1.1"
   inkscape:version="0.91 r"
   sodipodi:docname="applications-system.svg">
  <metadata
     id="metadata10">
    <rdf:RDF>
      <cc:Work
         rdf:about="">
        <dc:format>image/svg+xml</dc:format>
        <dc:type
           rdf:resource="http://purl.org/dc/dcmitype/StillImage" />
        <dc:title />
      </cc:Work>
    </rdf:RDF>
  </metadata>
  <defs
     id="defs8" />
  <sodipodi:namedview
     pagecolor="#ffffff"
     bordercolor="#666666"
     borderopacity="1"
     objecttolerance="10"
     gridtolerance="10"
     guidetolerance="10"
     inkscape:pageopacity="0"
     inkscape:pageshadow="2"
     inkscape:window-width="1920"
     inkscape:window-height="1056"
     id="namedview6"
     showgrid="true"
     inkscape:zoom="20.85965"
     inkscape:cx="14.355995"
     inkscape:cy="10.53258"
     inkscape:window-x="0"
     inkscape:window-y="24"
     inkscape:window-maximized="1"
     inkscape:current-layer="svg2">
    <inkscape:grid
       type="xygrid"
       id="grid4138" />
  </sodipodi:namedview>
  <path
     style="fill:#ee6454"
     d="m 11,2 c -4.959722,0 -9,4.0402785 -9,9 0,4.959722 4.040278,9 9,9 4.959721,0 9,-4.040278 9,-9 C 20,6.0402785 15.959721,2 11,2 Z M 10.875,5.5 A 1.125,1.125 0 0 1 12,6.625 1.125,1.125 0 0 1 10.875,7.75 1.125,1.125 0 0 1 9.75,6.625 1.125,1.125 0 0 1 10.875,5.5 Z M 9,8.5 l 3,0 0,6.998047 1.5,0 0,1.001953 -5,0 0,-1.001953 1.5,10e-4 L 10,9.5 l -1,0 0,-1 z"
     id="path4"
     inkscape:connector-curvature="0" />
</svg>

<svg xmlns="http://www.w3.org/2000/svg" viewBox="0 0 22 22">
 <path d="m 11 2 c -4.96 0 -9 4.04 -9 9 0 4.96 4.04 9 9 9 4.96 0 9 -4.04 9 -9 c 0 -4.96 -4.04 -9 -9 -9 m -0.125 3.5 a 1.125 1.125 0 0 1 1.125 1.125 1.125 1.125 0 0 1 -1.125 1.125 1.125 1.125 0 0 1 -1.125 -1.125 1.125 1.125 0 0 1 1.125 -1.125 m -1.875 3 l 3 0 0 6.998 1.5 0 0 1 -5 0 0 -1 1.5 0.001 l 0 -5.999 l -1 0 0 -1 z" style="fill:#ee6454"/>
</svg>
